src/pos-icons/hand.svg

<svg height="24" viewBox="0 0 24 24" width="24" xmlns="http://www.w3.org/2000/svg"><path d="m6.58 19h8v3h-8zm13.16-7.4c-.19-.2-.45-.32-.74-.32l-.22.03-3.2 1.69v-1.17l.51-8.93c.03-.55-.39-1.03-.94-1.06s-1.03.39-1.06.94l-.27 4.69h-.24l-1.04.11v-5.58a1 1 0 0 0 -1-1c-.54 0-1 .45-1 1v6.41l-.82.37-.69-5.46c-.07-.55-.57-.94-1.12-.87-.55.05-.94.55-.87 1.12l.77 6.06-.38.17c-.13.05-.25.13-.36.2l-1.1-3.89c-.16-.57-.72-.91-1.26-.77-.53.16-.83.74-.67 1.31l2.57 9.12c0 .03.02.07.03.1l.03.13h.01c.22.57.79 1 1.4 1h6.5c.39 0 .74-.16 1-.43l4.92-4.2z"/></svg>

<?xml version="1.0" encoding="UTF-8"?><!DOCTYPE svg PUBLIC "-//W3C//DTD SVG 1.1//EN" "http://www.w3.org/Graphics/SVG/1.1/DTD/svg11.dtd"><svg xmlns="http://www.w3.org/2000/svg" xmlns:xlink="http://www.w3.org/1999/xlink" version="1.1" id="mdi-hand" width="24" height="24" viewBox="0 0 24 24"><path d="M6.58,19H14.58V22H6.58V19M19.74,11.6C19.55,11.4 19.29,11.28 19,11.28L18.78,11.31L15.58,13V11.83L16.09,2.9C16.12,2.35 15.7,1.87 15.15,1.84C14.6,1.81 14.12,2.23 14.09,2.78L13.82,7.47H13.58L12.54,7.58V2A1,1 0 0,0 11.54,1C11,1 10.54,1.45 10.54,2V8.41L9.72,8.78L9.03,3.32C8.96,2.77 8.46,2.38 7.91,2.45C7.36,2.5 6.97,3 7.04,3.57L7.81,9.63L7.43,9.8C7.3,9.85 7.18,9.93 7.07,10L5.97,6.11C5.81,5.54 5.25,5.2 4.71,5.34C4.18,5.5 3.88,6.08 4.04,6.65L6.61,15.77C6.61,15.8 6.63,15.84 6.64,15.87L6.67,16H6.68C6.9,16.57 7.47,17 8.08,17H14.58C14.97,17 15.32,16.84 15.58,16.57L20.5,12.37L19.74,11.6Z" /></svg>
